src/icons/plop.svg

<svg viewBox="0 0 250 250" xmlns="http://www.w3.org/2000/svg">
  <path
    d="M60.095 155.16C62.915 192.122 87.594 224.679 124.649 224.701H125.351C162.407 224.679 187.086 192.122 189.905 155.16C189.985 154.123 190.024 153.057 190.025 151.963V151.919C190.017 135.599 181.301 112.954 164.261 86.142C155.393 72.2037 146.463 58.3049 137.471 44.446C134.53 39.9093 131.584 35.3766 128.631 30.848C127.805 29.5823 126.979 28.317 126.152 27.052C125.935 26.7185 125.717 26.3852 125.499 26.052L125 25.292L124.502 26.052C124.284 26.3852 124.066 26.7185 123.848 27.052L121.37 30.849C118.416 35.3773 115.469 39.9096 112.528 44.446C103.537 58.3049 94.6074 72.2037 85.7399 86.142C68.6929 112.967 59.976 135.621 59.976 151.941C59.976 153.043 60.016 154.116 60.096 155.161L60.095 155.16ZM91.7559 152.405C91.7149 151.871 91.695 151.321 91.695 150.757C91.695 142.4 96.1599 130.801 104.892 117.067C109.434 109.931 114.007 102.815 118.612 95.719C120.539 92.7464 122.471 89.7777 124.41 86.813L125 85.912L125.589 86.813C127.527 89.7787 129.46 92.7473 131.389 95.719C135.994 102.815 140.567 109.931 145.109 117.067C153.838 130.795 158.302 142.39 158.306 150.745V150.768C158.305 151.328 158.285 151.875 158.245 152.405C156.8 171.329 144.16 187.998 125.18 188.01H124.821C105.84 187.999 93.1999 171.329 91.7559 152.405Z"
    fill="#00BFA5"
  />
</svg>

<svg fill="none" viewBox="0 0 250 250" xmlns="http://www.w3.org/2000/svg"><path d="M60.095 155.16c2.82 36.962 27.499 69.519 64.554 69.541h.702c37.056-.022 61.735-32.579 64.554-69.541.08-1.037.119-2.103.12-3.197v-.044c-.008-16.32-8.724-38.965-25.764-65.777a5571.2 5571.2 0 0 0-26.79-41.696 5948.5 5948.5 0 0 0-8.84-13.598 5350.906 5350.906 0 0 0-2.479-3.796 832.32 832.32 0 0 0-.653-1l-.499-.76-.498.76a832.32 832.32 0 0 0-.654 1l-2.478 3.797a5896.424 5896.424 0 0 0-8.842 13.597A5572 5572 0 0 0 85.74 86.142c-17.047 26.825-25.764 49.479-25.764 65.799 0 1.102.04 2.175.12 3.22zm31.661-2.755c1.444 18.924 14.084 35.594 33.065 35.605h.359c18.98-.012 31.62-16.681 33.065-35.605.04-.53.06-1.077.061-1.637v-.023c-.004-8.355-4.468-19.95-13.197-33.678a2858 2858 0 0 0-13.72-21.348 3425.1 3425.1 0 0 0-5.8-8.906l-.589-.901-.59.901a2608.2 2608.2 0 0 0-5.798 8.906 2858 2858 0 0 0-13.72 21.348c-8.732 13.734-13.197 25.333-13.197 33.69 0 .564.02 1.113.061 1.647z" clip-rule="evenodd" fill="#00bfa5" fill-rule="evenodd"/></svg>
